build/img/partners/komus.svg

<svg width="257" height="101" viewBox="0 0 257 101" fill="none" xmlns="http://www.w3.org/2000/svg">
<path d="M27.494 89H25.784V82.952C25.784 81.548 25.862 80.066 26.018 78.506L20.996 89H18.8V76.598H20.51V82.646C20.51 84.326 20.432 85.826 20.276 87.146L25.352 76.598H27.494V89ZM38.3171 89V83.186H33.0971V89H31.3871V76.598H33.0971V81.782H38.3171V76.598H40.0271V89H38.3171ZM51.2475 76.598L51.0675 78.056H47.6295V89H45.9195V78.056H42.3915V76.598H51.2475ZM60.2343 76.598L60.0363 77.966H55.2303V82.016H59.4063V83.384H55.2303V87.632H60.3783V89H53.5203V76.598H60.2343ZM66.7111 76.598C68.2471 76.598 69.4351 76.922 70.2751 77.57C71.1151 78.206 71.5351 79.16 71.5351 80.432C71.5351 81.788 71.0971 82.796 70.2211 83.456C69.3451 84.116 68.1811 84.446 66.7291 84.446H65.1631V89H63.4531V76.598H66.7111ZM66.6571 83.096C67.6531 83.096 68.4091 82.904 68.9251 82.52C69.4531 82.136 69.7171 81.446 69.7171 80.45C69.7171 79.562 69.4531 78.92 68.9251 78.524C68.4091 78.128 67.6651 77.93 66.6931 77.93H65.1631V83.096H66.6571ZM81.1421 89V83.186H75.9221V89H74.2121V76.598H75.9221V81.782H81.1421V76.598H82.8521V89H81.1421ZM93.4605 76.598L93.2625 77.966H88.4565V82.016H92.6325V83.384H88.4565V87.632H93.6045V89H86.7465V76.598H93.4605ZM104.005 76.598L103.825 78.056H100.387V89H98.6773V78.056H95.1493V76.598H104.005ZM104.662 84.068V82.664H109.756V84.068H104.662ZM120.105 76.598L119.853 78.074H114.651V89H112.941V76.598H120.105ZM131.076 89H129.366V82.952C129.366 81.548 129.444 80.066 129.6 78.506L124.578 89H122.382V76.598H124.092V82.646C124.092 84.326 124.014 85.826 123.858 87.146L128.934 76.598H131.076V89ZM143.519 76.598V89H141.809V78.056H136.679V89H134.969V76.598H143.519ZM154.13 76.598L153.932 77.966H149.126V82.016H153.302V83.384H149.126V87.632H154.274V89H147.416V76.598H154.13ZM160.606 76.598C162.142 76.598 163.33 76.922 164.17 77.57C165.01 78.206 165.43 79.16 165.43 80.432C165.43 81.788 164.992 82.796 164.116 83.456C163.24 84.116 162.076 84.446 160.624 84.446H159.058V89H157.348V76.598H160.606ZM160.552 83.096C161.548 83.096 162.304 82.904 162.82 82.52C163.348 82.136 163.612 81.446 163.612 80.45C163.612 79.562 163.348 78.92 162.82 78.524C162.304 78.128 161.56 77.93 160.588 77.93H159.058V83.096H160.552ZM178.65 89H176.994L176.562 83.402C176.382 81.206 176.28 79.52 176.256 78.344L173.574 87.596H171.972L169.146 78.326C169.146 79.826 169.068 81.56 168.912 83.528L168.498 89H166.878L167.904 76.598H170.208L172.818 85.616L175.302 76.598H177.624L178.65 89ZM188.478 89L187.542 85.886H182.844L181.908 89H180.18L184.158 76.598H186.318L190.278 89H188.478ZM183.258 84.5H187.128L185.202 78.02L183.258 84.5ZM195.749 76.598C197.285 76.598 198.473 76.922 199.313 77.57C200.153 78.206 200.573 79.16 200.573 80.432C200.573 81.788 200.135 82.796 199.259 83.456C198.383 84.116 197.219 84.446 195.767 84.446H194.201V89H192.491V76.598H195.749ZM195.695 83.096C196.691 83.096 197.447 82.904 197.963 82.52C198.491 82.136 198.755 81.446 198.755 80.45C198.755 79.562 198.491 78.92 197.963 78.524C197.447 78.128 196.703 77.93 195.731 77.93H194.201V83.096H195.695ZM211.53 76.598L208.092 82.412L211.872 89H209.892L206.652 83.186H204.96V89H203.25V76.598H204.96V81.782H206.67L209.73 76.598H211.53ZM220.863 76.598L220.665 77.966H215.859V82.016H220.035V83.384H215.859V87.632H221.007V89H214.149V76.598H220.863ZM231.408 76.598L231.228 78.056H227.79V89H226.08V78.056H222.552V76.598H231.408Z" fill="#595959"/>
<path fill-rule="evenodd" clip-rule="evenodd" d="M172.957 43.3399C171.495 43.3399 170.154 43.7295 168.959 44.4109L154.155 22.4566L138.036 40.2397L126.697 22.4566L109.502 42.51C109.575 41.9011 109.6 41.3141 109.6 40.6816C109.6 35.8019 107.868 31.3119 105.015 27.8001L74.8477 54.4874C78.5069 58.5103 83.7496 61.0235 89.5537 61.0235C92.358 61.0235 95.0409 60.4382 97.4539 59.3907C100.332 58.2674 103.015 56.5115 105.162 54.0725L115.283 42.5589L126.449 59.976L142.4 42.4105L154.01 60.342L164.935 49.5099C164.961 49.5335 164.984 49.5335 165.008 49.5335C164.812 50.2183 164.718 50.9504 164.718 51.7043C164.718 56.3158 168.422 60.0722 172.957 60.0722C173.616 60.0722 174.252 59.976 174.861 59.8276C177.227 59.4397 178.592 58.6098 180.641 56.999L195.711 40.8267C195.784 51.9523 204.76 61.0016 215.733 61.0016C223.832 61.0016 230.831 56.073 234 48.9971L229.292 48.9735C221.491 58.3163 209.443 59.4633 202.932 48.5839L217.857 33.1892C217.832 33.0947 217.077 35.2891 217.149 35.7041C217.149 39.1652 218.051 40.7271 221.125 42.6095C231.828 46.2157 237.464 29.0685 224.879 22.6539C222.415 21.2607 219.173 20.3583 215.733 20.3583C207.394 20.3583 200.199 25.5804 197.2 32.9733L189.761 22.3351L166.446 22.4346L183.371 48.2921L181.129 50.7294C180.641 46.5851 177.154 43.3399 172.957 43.3399ZM89.5537 20.3583C78.5306 20.3583 69.5056 29.5071 69.5056 40.6816C69.5056 43.1914 69.971 45.6068 70.799 47.8535L61.8988 55.5855C61.6071 55.879 61.3137 55.879 61.0203 55.5855C55.5315 49.0224 50.0443 42.4375 44.5572 35.8981C44.5572 35.8019 44.5572 35.753 44.5572 35.6805L55.8013 21.5542C55.9244 23.2864 58.6055 28.3112 63.6778 28.581C67.3118 28.775 70.2391 26.8741 71.6775 24.3339C73.6285 20.9216 73.4329 17.0911 70.7012 13.7733C68.0183 11.4557 66.4332 10.8941 62.8971 11.0155C59.8247 11.3579 57.754 12.6499 55.5078 14.9911L43.9501 29.141L43.9737 12.7984L19.0489 24.2883L19 69L43.9737 57.1474V42.4105L60.8483 61.1466C61.1181 61.3676 61.3609 61.3676 61.6796 61.1466C65.3118 57.9283 68.9711 54.732 72.605 51.5104C72.605 51.5357 72.6286 51.5357 72.6286 51.5357L102.552 25.238C102.526 25.238 102.503 25.2143 102.503 25.1874C102.503 25.1874 102.526 25.1654 102.552 25.1654C102.358 24.9934 102.162 24.8719 101.966 24.7505C98.5517 22.018 94.2348 20.3583 89.5537 20.3583ZM94.6749 41.6801C98.4067 41.6801 101.455 44.9018 101.455 48.8285C101.455 52.7552 98.4067 55.9734 94.6749 55.9734C90.9432 55.9734 87.8944 52.7552 87.8944 48.8285C87.8944 44.9018 90.9432 41.6801 94.6749 41.6801V41.6801Z" fill="#BB0000"/>
</svg>

<svg width="257" height="101" fill="none" xmlns="http://www.w3.org/2000/svg"><path d="M27.494 89h-1.71v-6.048c0-1.404.078-2.886.234-4.446L20.996 89H18.8V76.598h1.71v6.048c0 1.68-.078 3.18-.234 4.5l5.076-10.548h2.142V89zm10.823 0v-5.814h-5.22V89h-1.71V76.598h1.71v5.184h5.22v-5.184h1.71V89h-1.71zm12.93-12.402l-.18 1.458H47.63V89h-1.71V78.056h-3.527v-1.458h8.855zm8.987 0l-.198 1.368H55.23v4.05h4.176v1.368H55.23v4.248h5.148V89H53.52V76.598h6.714zm6.477 0c1.536 0 2.724.324 3.564.972.84.636 1.26 1.59 1.26 2.862 0 1.356-.438 2.364-1.314 3.024-.876.66-2.04.99-3.492.99h-1.566V89h-1.71V76.598h3.258zm-.054 6.498c.996 0 1.752-.192 2.268-.576.528-.384.792-1.074.792-2.07 0-.888-.264-1.53-.792-1.926-.516-.396-1.26-.594-2.232-.594h-1.53v5.166h1.494zM81.142 89v-5.814h-5.22V89h-1.71V76.598h1.71v5.184h5.22v-5.184h1.71V89h-1.71zm12.319-12.402l-.198 1.368h-4.806v4.05h4.175v1.368h-4.175v4.248h5.148V89h-6.859V76.598h6.715zm10.544 0l-.18 1.458h-3.438V89h-1.71V78.056H95.15v-1.458h8.856zm.657 7.47v-1.404h5.094v1.404h-5.094zm15.443-7.47l-.252 1.476h-5.202V89h-1.71V76.598h7.164zM131.076 89h-1.71v-6.048c0-1.404.078-2.886.234-4.446L124.578 89h-2.196V76.598h1.71v6.048c0 1.68-.078 3.18-.234 4.5l5.076-10.548h2.142V89zm12.443-12.402V89h-1.71V78.056h-5.13V89h-1.71V76.598h8.55zm10.611 0l-.198 1.368h-4.806v4.05h4.176v1.368h-4.176v4.248h5.148V89h-6.858V76.598h6.714zm6.476 0c1.536 0 2.724.324 3.564.972.84.636 1.26 1.59 1.26 2.862 0 1.356-.438 2.364-1.314 3.024-.876.66-2.04.99-3.492.99h-1.566V89h-1.71V76.598h3.258zm-.054 6.498c.996 0 1.752-.192 2.268-.576.528-.384.792-1.074.792-2.07 0-.888-.264-1.53-.792-1.926-.516-.396-1.26-.594-2.232-.594h-1.53v5.166h1.494zM178.65 89h-1.656l-.432-5.598c-.18-2.196-.282-3.882-.306-5.058l-2.682 9.252h-1.602l-2.826-9.27c0 1.5-.078 3.234-.234 5.202L168.498 89h-1.62l1.026-12.402h2.304l2.61 9.018 2.484-9.018h2.322L178.65 89zm9.828 0l-.936-3.114h-4.698L181.908 89h-1.728l3.978-12.402h2.16L190.278 89h-1.8zm-5.22-4.5h3.87l-1.926-6.48-1.944 6.48zm12.491-7.902c1.536 0 2.724.324 3.564.972.84.636 1.26 1.59 1.26 2.862 0 1.356-.438 2.364-1.314 3.024-.876.66-2.04.99-3.492.99h-1.566V89h-1.71V76.598h3.258zm-.054 6.498c.996 0 1.752-.192 2.268-.576.528-.384.792-1.074.792-2.07 0-.888-.264-1.53-.792-1.926-.516-.396-1.26-.594-2.232-.594h-1.53v5.166h1.494zm15.835-6.498l-3.438 5.814 3.78 6.588h-1.98l-3.24-5.814h-1.692V89h-1.71V76.598h1.71v5.184h1.71l3.06-5.184h1.8zm9.333 0l-.198 1.368h-4.806v4.05h4.176v1.368h-4.176v4.248h5.148V89h-6.858V76.598h6.714zm10.545 0l-.18 1.458h-3.438V89h-1.71V78.056h-3.528v-1.458h8.856z" fill="#595959"/><path fill-rule="evenodd" clip-rule="evenodd" d="M172.957 43.34a8 8 0 00-3.998 1.07l-14.804-21.953-16.119 17.783-11.339-17.783-17.195 20.053c.073-.609.098-1.196.098-1.828 0-4.88-1.732-9.37-4.585-12.882L74.848 54.487c3.659 4.023 8.902 6.536 14.706 6.536 2.804 0 5.487-.585 7.9-1.632 2.878-1.124 5.561-2.88 7.708-5.319l10.121-11.513 11.166 17.417L142.4 42.41l11.61 17.932 10.925-10.832c.026.023.049.023.073.023a7.896 7.896 0 00-.29 2.171c0 4.612 3.704 8.368 8.239 8.368.659 0 1.295-.096 1.904-.244 2.366-.388 3.731-1.218 5.78-2.829l15.07-16.172c.073 11.125 9.049 20.175 20.022 20.175 8.099 0 15.098-4.929 18.267-12.005l-4.708-.023c-7.801 9.342-19.849 10.49-26.36-.39l14.925-15.395c-.025-.094-.78 2.1-.708 2.515 0 3.461.902 5.023 3.976 6.905 10.703 3.607 16.339-13.54 3.754-19.955-2.464-1.393-5.706-2.296-9.146-2.296-8.339 0-15.534 5.222-18.533 12.615l-7.439-10.638-23.315.1 16.925 25.857-2.242 2.437c-.488-4.144-3.975-7.39-8.172-7.39zM89.554 20.358c-11.023 0-20.048 9.15-20.048 20.324 0 2.51.465 4.925 1.293 7.171l-8.9 7.733c-.292.293-.585.293-.879 0-5.489-6.564-10.976-13.148-16.463-19.688v-.218l11.244-14.126c.123 1.732 2.804 6.757 7.877 7.027 3.634.194 6.561-1.707 8-4.247 1.95-3.412 1.755-7.243-.977-10.56-2.683-2.318-4.268-2.88-7.804-2.758-3.072.342-5.143 1.634-7.39 3.975L43.95 29.141l.024-16.343-24.925 11.49L19 69l24.974-11.853V42.411l16.874 18.736c.27.22.513.22.832 0 3.632-3.219 7.291-6.415 10.925-9.637 0 .026.024.026.024.026l29.923-26.298a.051.051 0 01-.049-.05s.023-.023.049-.023a4.053 4.053 0 00-.586-.415c-3.414-2.732-7.731-4.392-12.412-4.392zm5.12 21.322c3.733 0 6.781 3.222 6.781 7.148 0 3.927-3.048 7.145-6.78 7.145s-6.78-3.218-6.78-7.145c0-3.926 3.048-7.148 6.78-7.148z" fill="#B00"/></svg>
